X:1
T:Title
L:1/8
M:2/4
K:Bb
V:1 treble nm="Grand Piano"
V:1
 z2[Q:1/4=100] G^F | G^F ED | E2 ^F2 | G^F ED | D2 G^F | G^F ED | E2 ^F2 | G^F ED | D2 ^FG | %9
 A2 AA | A^F FE | E/D/E/^F/ ED | D3 B | B2 B2 | AG ^FG | A4 | A2 ^FG | A2 AA | A^F FE | %19
 E/D/E/^F/ ED | D3 B | B2 B2 | AG ^FG | A4 | GD GA | B2 B2 | AG ^FG | A4 | GD GA | B2 BB | AG ^FG | %31
 A4 | G2 DD | E2 ^FF | GF ED | E2 ^F2 | GF ED | E2 ^F2 | GF ED | E2 ^F2 | G2 FG | A2 A2 | AG ^FG | %43
 A4 | .A2 z D | E2 ^F2 | GF ED | E/D/E/^F/ ED | D4- | D2 z2 |] %50

